X:2071
T:Bohlinpolkett
R:Polkett
O:Uppland
S:efter August Bohlin (?)
N:jämför [[Musik/1865|+]]
Z:Nils L
L:1/16
M:2/4
K:C
.E2.G2 .F2.A2 | .G2.c2 ecec | .G2.B2 dBdB | .G2.c2 cB.c2  |
.E2.G2 .F2.A2 | .G2.c2 e2de | f2dB   GBdB | c4     c4    ::
K:F
f2f2   d2Bd   | c2F2   AFAc | B2E2   GEGB | ABcA   F2Ac   |
f2f2   d2Bd   | c2F2   AFAc | B2GE   CEGE | F4     F4    :|
(:musicend:)

(:music:)
